T: Down The Glen
M: 4/4
L: 1/8
K: Dmaj
|:F2E|D3 F2A B2G B2d|A2D F2A d3 Bcd||:c2d|e2A c2e fed f2a|e2A c2e fed f2a|
